X: 47
T:Paddy's Trip to Scotland
M:C|
L:1/8
Q:200
S:THSP
R:reel
D:Dervish: The Boys of Sligo
Z:
K:D
"D"d2AA BAGF|"G"GABd "A"cABc|"D"d2ed "A"cABc|"D"dfed "A"cABc|
"D"d2AA BAGF|"G"GABd "A"cABc|"D"d2ed "A"cABc
|1 "D"df"A"ec "D"d2dc:|2 "D"df"A"ec "D"d2dB||:
"D"Adfd Adfd|gdfd edcB|"A"Acec Acec|fcec dcBc|
"D"Adfd Adfd|gdfd efge|"A"a2AA cBAc|1 dfec "D"d2dB:|2 dfec "D"dABc|]
